X:277
%%etbk:tnset id:84,pos:3,rep:3x,ant:
%%etbk:wsite http://www.thesession.org/tunes/display/2838
%%etbk:pldat 2016-09-17T14:03,2016-09-13T15:34,2016-08-05T17:07,2015-07-07T10:19,2014-12-31T15:04,2014-09-24T16:51,2014-05-19T19:05,2014-05-17T14:29,2014-05-09T19:07,2014-03-27T18:08,2014-03-15T16:26,2014-03-09T15:18,2013-11-27T18:17,2013-10-21T18:39,2013-09-02T18:07,2013-08-28T17:24,2013-05-15T15:26,2013-05-05T13:35
T: Fasten The Leg In Her
Z: Piano Box Version by Martin Fleischmann
H: Created 2013-02-19 /  Last Modified 2013-02-19
M: 6/8
L: 1/8
R: jig
K: Gmaj
|:!2!B3!2!B!1!A!2!B|!1!G!2!B!3!d !5!g!3!d!2!B|!1!A3!1!A!2!G!1!A|!2!B!5!ee !4!dBA|
!2!BcB BAB|!1!GBd !5!g3|!2!efg eag|[1fdd !1!d2!3!c:|[2fdd def||
|:!4!g3fgf|efe !1!d!3!B!2!A|!1!G3!2!AGA|!3!B!5!e!2!e !1!def|
!4!gag fgf|efe d3|!2!efg eag|[1fdd def:|[2fdd !1!d2!3!c|]


